Obsidian-SemiLight/actions/16s/media-repeat-track-amarok.svg

<svg viewBox="0 0 16 16" xmlns="http://www.w3.org/2000/svg"><path d="m8 2a6 6 0 0 0 -5.9140625 5h1.015625a5 5 0 0 1 4.8984375-4 5 5 0 0 1 4.894531 4h1.015625a6 6 0 0 0 -5.910156-5zm0 2c-1.8617394 0-3.4113542 1.2777325-3.8574219 3h2.1347657c.3463653-.5956329.9839973-1 1.7226562-1zm4 3v1h-5c-1.10799 0-2 .89202-2 2h1c0-.55399.446-1 1-1h4 1v1l2-1.5zm-9 1v1h-1v1h1v2h-1v1h1v1h1v-1-1-2-1-1zm4 3-2 1.5 2 1.5v-1h5c1.10799 0 2-.89201 2-2h-1c0 .554-.446 1-1 1h-4-1z" fill="#4d4d4d"/></svg>

<svg xmlns="http://www.w3.org/2000/svg" viewBox="0 0 16 16">
  <defs id="defs3051">
    <style type="text/css" id="current-color-scheme">
      .ColorScheme-Text {
        color:#4d4d4d;
      }
      </style>
  </defs>
 <path style="fill:currentColor;fill-opacity:1;stroke:none" 
     d="M 8 2 A 6 6 0 0 0 2.0859375 7 L 3.1015625 7 A 5 5 0 0 1 8 3 A 5 5 0 0 1 12.894531 7 L 13.910156 7 A 6 6 0 0 0 8 2 z M 8 4 C 6.1382606 4 4.5886458 5.2777325 4.1425781 7 L 6.2773438 7 C 6.6237091 6.4043671 7.2613411 6 8 6 L 8 4 z M 12 7 L 12 8 L 7 8 C 5.89201 8 5 8.89202 5 10 L 6 10 C 6 9.44601 6.446 9 7 9 L 11 9 L 12 9 L 12 10 L 14 8.5 L 12 7 z M 3 8 L 3 9 L 2 9 L 2 10 L 3 10 L 3 12 L 2 12 L 2 13 L 3 13 L 3 14 L 4 14 L 4 13 L 4 12 L 4 10 L 4 9 L 4 8 L 3 8 z M 7 11 L 5 12.5 L 7 14 L 7 13 L 12 13 C 13.10799 13 14 12.10799 14 11 L 13 11 C 13 11.554 12.554 12 12 12 L 8 12 L 7 12 L 7 11 z "
     class="ColorScheme-Text"
     />
</svg>
